_site/images/icons/verification-complete.svg

<svg height="64" viewBox="0 0 64 64" width="64" xmlns="http://www.w3.org/2000/svg"><g fill="none"><path d="m52 64h-40c-6.628 0-12-5.372-12-12v-40c0-6.628 5.372-12 12-12h40c6.628 0 12 5.372 12 12v40c0 6.628-5.372 12-12 12z" fill="#b7d7d6"/><g fill="#0b7a76"><path d="m47.322 18.434-7-2.38c-.208-.072-.434-.072-.644 0l-7 2.38c-.406.138-.678.518-.678.948v5.358c0 6.54 7.298 9.716 7.61 9.85.126.052.258.08.39.08s.266-.026.39-.08c.312-.134 7.61-3.312 7.61-9.852v-5.356c0-.43-.272-.81-.678-.948zm-2.94 5.056-3.666 4.666c-.224.286-.556.468-.918.504-.042.004-.088.006-.13.006-.316 0-.626-.112-.868-.32l-2.334-2c-.56-.48-.626-1.32-.144-1.88.48-.558 1.322-.624 1.88-.144l1.278 1.094 2.808-3.572c.454-.578 1.292-.68 1.872-.224.576.454.678 1.292.222 1.87z"/><g transform="translate(16 31.875)"><path d="m.654.127c-.362.008-.654.304-.654.668v12.33c0 .184.15.334.334.334h3.162c.298 0 .56-.198.642-.484l2.95-10.398c.19-.672-.17-1.378-.826-1.616-1.21-.442-3.062-.876-5.608-.834z"/><path d="m29.334 7.459c-2.666 0-8 3.376-10.668 3.376-2.666 0-5.666-2.042-5.666-2.042s3.592.666 5.666.666c2.076 0 2.666-.708 2.666-1.666 0-2.334-3.964-2.696-5.968-3-1.968-1.096-2.99-1.962-6.25-2.238-.02.19-.05.378-.102.568l-2.678 9.44c3.034 1.38 8.258 3.566 11 3.566 4 0 14.668-5.334 14.668-6.666-.002-1.338-1.334-2.004-2.668-2.004z"/></g></g></g></svg>

<?xml version="1.0" encoding="UTF-8"?>
<svg width="64px" height="64px" viewBox="0 0 64 64" version="1.1" xmlns="http://www.w3.org/2000/svg" xmlns:xlink="http://www.w3.org/1999/xlink">
    <!-- Generator: Sketch 52.6 (67491) - http://www.bohemiancoding.com/sketch -->
    <title>share</title>
    <desc>Created with Sketch.</desc>
    <g id="Website" stroke="none" stroke-width="1" fill="none" fill-rule="evenodd">
        <g id="6--Pricing" transform="translate(-1145.000000, -3180.000000)" fill-rule="nonzero">
            <g id="Group-12" transform="translate(92.000000, 2652.000000)">
                <g id="Group-30" transform="translate(45.000000, 528.000000)">
                    <g id="Group-11">
                        <g id="share" transform="translate(1008.000000, 0.000000)">
                            <path d="M52,64 L12,64 C5.372,64 0,58.628 0,52 L0,12 C0,5.372 5.372,0 12,0 L52,0 C58.628,0 64,5.372 64,12 L64,52 C64,58.628 58.628,64 52,64 Z" id="Path" fill="#B7D7D6"></path>
                            <path d="M47.322,18.434 L40.322,16.054 C40.114,15.982 39.888,15.982 39.678,16.054 L32.678,18.434 C32.272,18.572 32,18.952 32,19.382 L32,24.74 C32,31.28 39.298,34.456 39.61,34.59 C39.736,34.642 39.868,34.67 40,34.67 C40.132,34.67 40.266,34.644 40.39,34.59 C40.702,34.456 48,31.278 48,24.738 L48,19.382 C48,18.952 47.728,18.572 47.322,18.434 Z M44.382,23.49 L40.716,28.156 C40.492,28.442 40.16,28.624 39.798,28.66 C39.756,28.664 39.71,28.666 39.668,28.666 C39.352,28.666 39.042,28.554 38.8,28.346 L36.466,26.346 C35.906,25.866 35.84,25.026 36.322,24.466 C36.802,23.908 37.644,23.842 38.202,24.322 L39.48,25.416 L42.288,21.844 C42.742,21.266 43.58,21.164 44.16,21.62 C44.736,22.074 44.838,22.912 44.382,23.49 Z" id="Shape" fill="#0B7A76"></path>
                            <g id="Group" transform="translate(16.000000, 31.875000)" fill="#0B7A76">
                                <path d="M0.654,0.127 C0.292,0.135 0,0.431 0,0.795 L0,13.125 C0,13.309 0.15,13.459 0.334,13.459 L3.496,13.459 C3.794,13.459 4.056,13.261 4.138,12.975 L7.088,2.577 C7.278,1.905 6.918,1.199 6.262,0.961 C5.052,0.519 3.2,0.085 0.654,0.127 Z" id="Path"></path>
                                <path d="M29.334,7.459 C26.668,7.459 21.334,10.835 18.666,10.835 C16,10.835 13,8.793 13,8.793 C13,8.793 16.592,9.459 18.666,9.459 C20.742,9.459 21.332,8.751 21.332,7.793 C21.332,5.459 17.368,5.097 15.364,4.793 C13.396,3.697 12.374,2.831 9.114,2.555 C9.094,2.745 9.064,2.933 9.012,3.123 L6.334,12.563 C9.368,13.943 14.592,16.129 17.334,16.129 C21.334,16.129 32.002,10.795 32.002,9.463 C32,8.125 30.668,7.459 29.334,7.459 Z" id="Path"></path>
                            </g>
                        </g>
                    </g>
                </g>
            </g>
        </g>
    </g>
</svg>
